X:1
T:The Bonnie Isle of Whalsay
C:Trad. Arr. Ryan Morrison
R:Reel
M:4/4
Q:1/4=90
K:Hp
L:1/8 
|: {g}ed{g}c{d}A {gBeBG} B2 {g}ed | {g}c{d}A {gAGAG}A2 {g}B{d}G{e}G{d}B | {g}ed{g}c{d}A {gBeBG} B2 {g}ed | {g}c{d}A{g}B{d}G {g}A{d}A{e}AB :| 
|| {gcecG} c2 {g}eg {a}fA{g}ed | {g}c{d}A{g}dc {g}B{d}G{e}GB | {gcecG} c2 {g}eg {a}fA{g}ed | {g}c{d}A{g}B{d}G {g}A{d}A{e}AB |
% 
| {gcecG} c2 {g}eg {a}fA{g}ed | {g}c{d}A{g}dc {g}B{d}G{e}GB | {gcecG} c2 {g}ef {a}gage | {g}dB{g}G{d}B {g}A{d}A{e}AB ||
%